inst/assets/svg/wi-direction-down-left.svg

<?xml version="1.0" encoding="UTF-8"?>
<svg xmlns="http://www.w3.org/2000/svg" xmlns:xlink="http://www.w3.org/1999/xlink" width="30pt" height="30pt" viewBox="0 0 30 30" version="1.1">
<g id="surface181">
<path style=" stroke:none;fill-rule:nonzero;fill:rgb(0%,0%,0%);fill-opacity:1;" d="M 11.828125 16.769531 C 11.828125 16.960938 11.890625 17.121094 12.019531 17.25 C 12.148438 17.378906 12.308594 17.441406 12.488281 17.441406 L 15.359375 17.441406 C 15.550781 17.441406 15.710938 17.378906 15.828125 17.25 C 15.960938 17.121094 16.019531 16.960938 16.019531 16.769531 C 16.019531 16.578125 15.960938 16.429688 15.828125 16.308594 C 15.699219 16.191406 15.539063 16.128906 15.359375 16.128906 L 14.121094 16.128906 L 18 12.238281 C 18.121094 12.101563 18.179688 11.941406 18.179688 11.738281 C 18.179688 11.558594 18.121094 11.410156 18 11.28125 C 17.878906 11.160156 17.710938 11.101563 17.5 11.101563 C 17.300781 11.101563 17.140625 11.160156 17.019531 11.28125 L 13.160156 15.148438 L 13.160156 13.898438 C 13.160156 13.710938 13.101563 13.550781 12.96875 13.421875 C 12.839844 13.289063 12.679688 13.230469 12.488281 13.230469 C 12.300781 13.230469 12.140625 13.300781 12.019531 13.429688 C 11.890625 13.558594 11.828125 13.71875 11.828125 13.910156 Z M 11.828125 16.769531 "/>
</g>
</svg>

<?xml version="1.0" encoding="utf-8"?>
<!-- Generator: Adobe Illustrator 22.0.1, SVG Export Plug-In . SVG Version: 6.00 Build 0)  -->
<svg version="1.1" id="Layer_1" xmlns="http://www.w3.org/2000/svg" xmlns:xlink="http://www.w3.org/1999/xlink" x="0px" y="0px"
	 viewBox="0 0 30 30" style="enable-background:new 0 0 30 30;" xml:space="preserve">
<path d="M11.83,16.77c0,0.19,0.06,0.35,0.19,0.48c0.13,0.13,0.29,0.19,0.47,0.19h2.87c0.19,0,0.35-0.06,0.47-0.19
	c0.13-0.13,0.19-0.29,0.19-0.48c0-0.19-0.06-0.34-0.19-0.46c-0.13-0.12-0.29-0.18-0.47-0.18h-1.24L18,12.24
	c0.12-0.14,0.18-0.3,0.18-0.5c0-0.18-0.06-0.33-0.18-0.46c-0.12-0.12-0.29-0.18-0.5-0.18c-0.2,0-0.36,0.06-0.48,0.18l-3.86,3.87
	v-1.25c0-0.19-0.06-0.35-0.19-0.48c-0.13-0.13-0.29-0.19-0.48-0.19c-0.19,0-0.35,0.07-0.47,0.2c-0.13,0.13-0.19,0.29-0.19,0.48
	V16.77z"/>
</svg>
